X:174
T:Moll Peatley
M:6/4
L:1/8
N:The ‘B' notes in the second measure of the 1st strain may be played natural.
B:Thompson's Compleat Collection of 200 Favourite Country Dances, vol. 2 (London, 1765)
Z:Transcribed and edited by Flynn Titford-Mock, 2007
Z:abc's:AK/Fiddler's Companion
K:Dmin
d6 f6 | A2B2 c3B A2 | d4e2 f3g f2 | e4 d2 d6 || de | f3g f2c2 A2F2 | f6-f4 ef |
g3a g2g2 e2c2 | g6-g4 fe | d4 e2 f4 g2 | a4A2 ^c4A2 | a4A2 ^c4A2 | a4A2 ^c4A2 | a2g2f2 e4f2 | d6-d4 :|

